client/public/assets/icons/standard/service_territory_member.svg

<svg id="icons" xmlns="http://www.w3.org/2000/svg" width="100" height="100" viewBox="0 0 100 100"><title>service_territory_member</title><path d="M42.74,42.28A7.12,7.12,0,0,1,50,35.2a7.08,7.08,0,1,1-7.28,7.08Z" fill="#fff" fill-rule="evenodd"/><path d="M49.91,20A25.4,25.4,0,1,0,75.09,45.5C75.09,31.71,63.85,20,49.91,20Zm1,43.89a1.44,1.44,0,0,1-1.89,0c-3.15-2.36-13.56-11.65-13.56-21.56a14.51,14.51,0,0,1,29,0C64.48,52.25,54.07,61.38,50.92,63.89Z" fill="#fff" fill-rule="evenodd"/><path d="M26,64.21H24.73A4.75,4.75,0,0,0,20,68.95v6.31A4.74,4.74,0,0,0,24.73,80H75.27A4.75,4.75,0,0,0,80,75.26V68.95a4.74,4.74,0,0,0-4.73-4.74H73.73a30.15,30.15,0,0,1-47.72,0Z" fill="#fff" fill-rule="evenodd"/></svg>

<?xml version="1.0"?><svg xmlns="http://www.w3.org/2000/svg" width="100" height="100" viewBox="0 0 100 100"><title></title><path d="m42.7 42.3a7.1 7.1 0 0 1 7.3-7.1 7.1 7.1 0 1 1-7.3 7.1z m7.2-22.3a25.4 25.4 0 1 0 25.2 25.5c0-13.8-11.2-25.5-25.2-25.5z m1 43.9a1.4 1.4 0 0 1-1.9 0c-3.1-2.4-13.5-11.7-13.5-21.6a14.5 14.5 0 0 1 29 0c0 10-10.4 19.1-13.6 21.6z m-24.9 0.3h-1.3a4.8 4.8 0 0 0-4.7 4.8v6.3a4.7 4.7 0 0 0 4.7 4.7h50.6a4.8 4.8 0 0 0 4.7-4.7v-6.3a4.7 4.7 0 0 0-4.7-4.8h-1.6a30.1 30.1 0 0 1-47.7 0z" fill="#fff" fill-rule="evenodd"></path></svg>
